app/img/check-list.svg

<svg width="16" height="16" viewBox="0 0 16 16" fill="none" xmlns="http://www.w3.org/2000/svg">
<path d="M7.99935 15.3327C12.0427 15.3327 15.3327 12.043 15.3327 7.99935C15.3327 7.30141 15.2353 6.61361 15.0423 5.9549C14.9473 5.63099 14.6091 5.44495 14.2843 5.53998C13.9601 5.63472 13.7746 5.97415 13.8694 6.29805C14.0291 6.84531 14.1105 7.41793 14.1105 7.99935C14.1105 11.369 11.369 14.1105 7.99935 14.1105C4.62973 14.1105 1.88824 11.369 1.88824 7.99935C1.88824 4.62973 4.62973 1.88824 7.99935 1.88824C9.22396 1.88824 10.4022 2.24631 11.4066 2.92352C11.6862 3.11225 12.0663 3.0381 12.2547 2.7585C12.4433 2.47861 12.3698 2.09875 12.0899 1.91017C10.8829 1.0963 9.46849 0.666016 7.99935 0.666016C3.95596 0.666016 0.666016 3.95566 0.666016 7.99935C0.666016 12.043 3.95596 15.3327 7.99935 15.3327Z" fill="#FF5A30"/>
<path d="M14.8612 1.52787L7.99923 8.38953L5.80391 6.19454C5.5435 5.93429 5.12162 5.93429 4.86121 6.19454C4.60095 6.45496 4.60095 6.87683 4.86121 7.13725L7.52787 9.80391C7.65824 9.93429 7.82849 9.99923 7.99923 9.99923C8.16996 9.99923 8.34021 9.93429 8.47058 9.80391L15.8039 2.47058C16.0642 2.21016 16.0642 1.78829 15.8039 1.52787C15.5435 1.26762 15.1216 1.26762 14.8612 1.52787Z" fill="#FF5A30"/>
</svg>

<svg width="16" height="16" fill="none" xmlns="http://www.w3.org/2000/svg"><path d="M8 15.333c4.043 0 7.333-3.29 7.333-7.334 0-.698-.098-1.385-.29-2.044a.61.61 0 10-1.174.343c.16.547.242 1.12.242 1.701a6.118 6.118 0 01-6.112 6.112 6.118 6.118 0 01-6.11-6.112 6.118 6.118 0 016.11-6.11 6.07 6.07 0 013.408 1.035.611.611 0 00.683-1.014A7.288 7.288 0 008 .666C3.955.666.665 3.956.665 7.999c0 4.044 3.29 7.334 7.333 7.334z" fill="#FF5A30"/><path d="M14.861 1.528L8 8.39 5.804 6.195a.667.667 0 00-.943.942l2.667 2.667a.664.664 0 00.943 0l7.333-7.333a.667.667 0 00-.943-.943z" fill="#FF5A30"/></svg>
